packages/katcn/src/icons/svg/flash.svg

<svg width="24" height="25" viewBox="0 0 24 25" fill="none" xmlns="http://www.w3.org/2000/svg">
<path fill-rule="evenodd" clip-rule="evenodd" d="M13.6523 3.81056L11.4261 6.57278L9.27804 9.17258L6.16042 13.0515H10.2452C10.7975 13.0515 11.2452 13.4993 11.2452 14.0515V21.1371L15.7232 15.5223L17.7661 13.026L18.8464 11.6449H14.6523C14.1 11.6449 13.6523 11.1972 13.6523 10.6449V3.81056ZM14.4748 1.41161C15.1549 1.65337 15.6523 2.3059 15.6523 3.13036V9.64493H19.2644C20.0676 9.64493 20.6027 10.1801 20.8337 10.7068C21.0582 11.219 21.0838 11.8967 20.7316 12.4706C20.7119 12.5028 20.6903 12.5338 20.667 12.5636L19.3346 14.2669L19.3209 14.2841L17.275 16.7841L12.5644 22.6906C12.5198 22.7464 12.4695 22.7973 12.4141 22.8424C11.8381 23.3117 11.0839 23.4303 10.4391 23.1939C9.76187 22.9456 9.24518 22.3115 9.24518 21.4659V15.0515H5.73556C4.93237 15.0515 4.39724 14.5164 4.16632 13.9897C3.94177 13.4775 3.91613 12.7998 4.26833 12.2259C4.2904 12.19 4.31473 12.1554 4.34116 12.1226L7.73184 7.90386L9.88033 5.30358L12.5209 2.02718C13.0042 1.35536 13.8097 1.1752 14.4748 1.41161Z" fill="black"/>
</svg>

<svg xmlns="http://www.w3.org/2000/svg" fill="none" viewBox="0 0 24 25"><path fill="#000" fill-rule="evenodd" d="m13.652 3.81-2.226 2.763-2.148 2.6-3.118 3.879h4.085a1 1 0 0 1 1 1v7.085l4.478-5.615 2.043-2.496 1.08-1.381h-4.194a1 1 0 0 1-1-1zm.823-2.398c.68.241 1.177.894 1.177 1.718v6.515h3.612c.804 0 1.339.535 1.57 1.062.224.512.25 1.19-.102 1.764a1 1 0 0 1-.065.093l-1.332 1.703-.014.017-2.046 2.5-4.71 5.907a1 1 0 0 1-.15.151 2.03 2.03 0 0 1-1.976.352 1.81 1.81 0 0 1-1.194-1.728v-6.414h-3.51c-.803 0-1.338-.536-1.569-1.062-.224-.513-.25-1.19.102-1.764a1 1 0 0 1 .073-.103l3.39-4.22 2.15-2.6 2.64-3.276a1.69 1.69 0 0 1 1.954-.615" clip-rule="evenodd"/></svg>
